build/fonts/cisco/asicprocessor.svg

<?xml version="1.0" encoding="UTF-8" standalone="no"?>
<svg
   xmlns:dc="http://purl.org/dc/elements/1.1/"
   xmlns:cc="http://creativecommons.org/ns#"
   xmlns:rdf="http://www.w3.org/1999/02/22-rdf-syntax-ns#"
   xmlns:svg="http://www.w3.org/2000/svg"
   xmlns="http://www.w3.org/2000/svg"
   viewBox="0 0 35 51.25"
   height="51.25"
   width="35"
   xml:space="preserve"
   version="1.1"
   id="svg2"><metadata
     id="metadata8"><rdf:RDF><cc:Work
         rdf:about=""><dc:format>image/svg+xml</dc:format><dc:type
           rdf:resource="http://purl.org/dc/dcmitype/StillImage" /></cc:Work></rdf:RDF></metadata><defs
     id="defs6"><clipPath
       id="clipPath18"
       clipPathUnits="userSpaceOnUse"><path
         id="path20"
         d="m 0,10 280,0 0,400 L 0,410 0,10 Z" /></clipPath></defs><g
     transform="matrix(1.25,0,0,-1.25,0,51.25)"
     id="g10"><g
       transform="scale(0.1,0.1)"
       id="g12"><g
         id="g14"><g
           clip-path="url(#clipPath18)"
           id="g16"><path
             id="path22"
             style="fill:#231f20;fill-opacity:1;fill-rule:nonzero;stroke:none"
             d="M 39.0586,285.898 4.83984,251.84 l 0,-238.5587 239.60916,0 34.223,34.0585 0,238.5582 -239.6134,0" /><path
             id="path24"
             style="fill:none;stroke:#ffffff;stroke-width:3.99993992;stroke-linecap:butt;stroke-linejoin:miter;stroke-miterlimit:4;stroke-dasharray:none;stroke-opacity:1"
             d="M 39.0586,285.898 4.83984,251.84 l 0,-238.5587 239.60916,0 34.223,34.0585 0,238.5582 -239.6134,0 z" /><path
             id="path26"
             style="fill:#231f20;fill-opacity:1;fill-rule:nonzero;stroke:none"
             d="m 4.83984,251.84 239.60916,0 34.223,34.058 -239.6134,0 L 4.83984,251.84" /><path
             id="path28"
             style="fill:none;stroke:#ffffff;stroke-width:3.99993992;stroke-linecap:butt;stroke-linejoin:miter;stroke-miterlimit:4;stroke-dasharray:none;stroke-opacity:1"
             d="m 4.83984,251.84 239.60916,0 34.223,34.058 -239.6134,0 L 4.83984,251.84 Z" /><path
             id="path30"
             style="fill:#231f20;fill-opacity:1;fill-rule:nonzero;stroke:none"
             d="m 244.449,251.84 34.223,34.058 0,-238.5582 -34.223,-34.0585 0,238.5587" /><path
             id="path32"
             style="fill:none;stroke:#ffffff;stroke-width:3.99993992;stroke-linecap:butt;stroke-linejoin:miter;stroke-miterlimit:4;stroke-dasharray:none;stroke-opacity:1"
             d="m 244.449,251.84 34.223,34.058 0,-238.5582 -34.223,-34.0585 0,238.5587 z" /><path
             id="path34"
             style="fill:#087bbb;fill-opacity:1;fill-rule:nonzero;stroke:none"
             d="M 39.0586,285.898 4.83984,251.84 l 0,-238.5587 239.60916,0 34.223,34.0585 0,238.5582 -239.6134,0" /><path
             id="path36"
             style="fill:none;stroke:#ffffff;stroke-width:3.99993992;stroke-linecap:butt;stroke-linejoin:miter;stroke-miterlimit:4;stroke-dasharray:none;stroke-opacity:1"
             d="M 39.0586,285.898 4.83984,251.84 l 0,-238.5587 239.60916,0 34.223,34.0585 0,238.5582 -239.6134,0 z" /><path
             id="path38"
             style="fill:#231f20;fill-opacity:1;fill-rule:nonzero;stroke:none"
             d="m 4.83984,251.84 239.60916,0 34.223,34.058" /><path
             id="path40"
             style="fill:none;stroke:#ffffff;stroke-width:3.99993992;stroke-linecap:butt;stroke-linejoin:miter;stroke-miterlimit:1;stroke-dasharray:none;stroke-opacity:1"
             d="m 4.83984,251.84 239.60916,0 34.223,34.058" /><path
             id="path42"
             style="fill:none;stroke:#ffffff;stroke-width:3.99993992;stroke-linecap:butt;stroke-linejoin:miter;stroke-miterlimit:1;stroke-dasharray:none;stroke-opacity:1"
             d="m 244.449,251.84 0,-238.5587" /><path
             id="path44"
             style="fill:#231f20;fill-opacity:1;fill-rule:nonzero;stroke:none"
             d="M 39.0586,405.199 4.83984,371.09 l 0,-119.25 239.60916,0 34.223,34.058 0,119.301 -239.6134,0" /><path
             id="path46"
             style="fill:none;stroke:#ffffff;stroke-width:3.99993992;stroke-linecap:butt;stroke-linejoin:miter;stroke-miterlimit:4;stroke-dasharray:none;stroke-opacity:1"
             d="M 39.0586,405.199 4.83984,371.09 l 0,-119.25 239.60916,0 34.223,34.058 0,119.301 -239.6134,0 z" /><path
             id="path48"
             style="fill:#231f20;fill-opacity:1;fill-rule:nonzero;stroke:none"
             d="m 4.83984,371.09 239.60916,0 34.223,34.109 -239.6134,0 L 4.83984,371.09" /><path
             id="path50"
             style="fill:none;stroke:#ffffff;stroke-width:3.99993992;stroke-linecap:butt;stroke-linejoin:miter;stroke-miterlimit:4;stroke-dasharray:none;stroke-opacity:1"
             d="m 4.83984,371.09 239.60916,0 34.223,34.109 -239.6134,0 L 4.83984,371.09 Z" /><path
             id="path52"
             style="fill:#231f20;fill-opacity:1;fill-rule:nonzero;stroke:none"
             d="m 244.449,371.09 34.223,34.109 0,-119.301 -34.223,-34.058 0,119.25" /><path
             id="path54"
             style="fill:none;stroke:#ffffff;stroke-width:3.99993992;stroke-linecap:butt;stroke-linejoin:miter;stroke-miterlimit:4;stroke-dasharray:none;stroke-opacity:1"
             d="m 244.449,371.09 34.223,34.109 0,-119.301 -34.223,-34.058 0,119.25 z" /><path
             id="path56"
             style="fill:#087bbb;fill-opacity:1;fill-rule:nonzero;stroke:none"
             d="M 39.0586,405.199 4.83984,371.09 l 0,-119.25 239.60916,0 34.223,34.058 0,119.301 -239.6134,0" /><path
             id="path58"
             style="fill:none;stroke:#ffffff;stroke-width:3.99993992;stroke-linecap:butt;stroke-linejoin:miter;stroke-miterlimit:4;stroke-dasharray:none;stroke-opacity:1"
             d="M 39.0586,405.199 4.83984,371.09 l 0,-119.25 239.60916,0 34.223,34.058 0,119.301 -239.6134,0 z" /><path
             id="path60"
             style="fill:none;stroke:#ffffff;stroke-width:3.99993992;stroke-linecap:butt;stroke-linejoin:miter;stroke-miterlimit:1;stroke-dasharray:none;stroke-opacity:1"
             d="m 4.83984,371.09 239.60916,0 34.223,34.109" /><path
             id="path62"
             style="fill:none;stroke:#ffffff;stroke-width:3.99993992;stroke-linecap:butt;stroke-linejoin:miter;stroke-miterlimit:1;stroke-dasharray:none;stroke-opacity:1"
             d="m 244.449,371.09 0,-119.25" /><path
             id="path64"
             style="fill:#ffffff;fill-opacity:1;fill-rule:nonzero;stroke:none"
             d="m 21.9492,320 68.4414,0 0,34.0586 -68.4414,0 0,-34.0586 z" /><path
             id="path66"
             style="fill:#231f20;fill-opacity:1;fill-rule:nonzero;stroke:none"
             d="m 39.0586,47.3398 171.172,0 0,170.391 -171.172,0 0,-170.391 z" /><path
             id="path68"
             style="fill:none;stroke:#ffffff;stroke-width:3.99993992;stroke-linecap:butt;stroke-linejoin:miter;stroke-miterlimit:1;stroke-dasharray:none;stroke-opacity:1"
             d="m 39.0586,47.3398 171.172,0 0,170.391 -171.172,0 0,-170.391 z" /><path
             id="path70"
             style="fill:#ffffff;fill-opacity:1;fill-rule:nonzero;stroke:none"
             d="m 73.2813,81.4414 102.699,0 0,102.227 -102.699,0 0,-102.227 z" /><path
             id="path72"
             style="fill:#ffffff;fill-opacity:1;fill-rule:nonzero;stroke:none"
             d="m 158.871,320 68.4805,0 0,34.0586 -68.4805,0 0,-34.0586 z" /><path
             id="path74"
             style="fill:#ffffff;fill-opacity:1;fill-rule:nonzero;stroke:none"
             d="m 21.9492,268.871 68.4414,0 0,34.0586 -68.4414,0 0,-34.0586 z" /><path
             id="path76"
             style="fill:#ffffff;fill-opacity:1;fill-rule:nonzero;stroke:none"
             d="m 158.871,268.871 68.4805,0 0,34.0586 -68.4805,0 0,-34.0586 z" /><path
             id="path78"
             style="fill:none;stroke:#ffffff;stroke-width:3.99993992;stroke-linecap:butt;stroke-linejoin:miter;stroke-miterlimit:1;stroke-dasharray:none;stroke-opacity:1"
             d="m 90.3906,337.031 68.4804,0" /><path
             id="path80"
             style="fill:none;stroke:#ffffff;stroke-width:3.99993992;stroke-linecap:butt;stroke-linejoin:miter;stroke-miterlimit:1;stroke-dasharray:none;stroke-opacity:1"
             d="m 90.3906,285.898 68.4804,0" /><path
             id="path82"
             style="fill:#231f20;fill-opacity:1;fill-rule:nonzero;stroke:none"
             d="M 90.3906,302.93 158.871,320" /><path
             id="path84"
             style="fill:none;stroke:#ffffff;stroke-width:3.99993992;stroke-linecap:butt;stroke-linejoin:miter;stroke-miterlimit:1;stroke-dasharray:none;stroke-opacity:1"
             d="M 90.3906,302.93 158.871,320" /><path
             id="path86"
             style="fill:#231f20;fill-opacity:1;fill-rule:nonzero;stroke:none"
             d="M 90.3906,320 158.871,302.93" /><path
             id="path88"
             style="fill:none;stroke:#ffffff;stroke-width:3.99993992;stroke-linecap:butt;stroke-linejoin:miter;stroke-miterlimit:1;stroke-dasharray:none;stroke-opacity:1"
             d="M 90.3906,320 158.871,302.93" /></g></g></g></g></svg>

<svg xmlns="http://www.w3.org/2000/svg" viewBox="0 0 35 51.25" height="51.25" width="35"><defs><clipPath id="a"><path d="M0 10h280v400H0V10z"/></clipPath></defs><g clip-path="url(#a)" transform="matrix(.13 0 0 -.13 0 51.25)"><path d="M39.059 285.898L4.839 251.84V13.281h239.61l34.223 34.059v238.558H39.059" fill="#231f20"/><path d="M39.059 285.898L4.839 251.84V13.281h239.61l34.223 34.059v238.558H39.059z" fill="none" stroke="#fff" stroke-width="4"/><path d="M4.84 251.84h239.609l34.223 34.058H39.059L4.839 251.84" fill="#231f20"/><path d="M4.84 251.84h239.609l34.223 34.058H39.059L4.839 251.84z" fill="none" stroke="#fff" stroke-width="4"/><path d="M244.449 251.84l34.223 34.058V47.34L244.449 13.28V251.84" fill="#231f20"/><path d="M244.449 251.84l34.223 34.058V47.34L244.449 13.28V251.84z" fill="none" stroke="#fff" stroke-width="4"/><path d="M39.059 285.898L4.839 251.84V13.281h239.61l34.223 34.059v238.558H39.059" fill="#087bbb"/><path d="M39.059 285.898L4.839 251.84V13.281h239.61l34.223 34.059v238.558H39.059z" fill="none" stroke="#fff" stroke-width="4"/><path d="M4.84 251.84h239.609l34.223 34.058" fill="#231f20"/><path d="M4.84 251.84h239.609l34.223 34.058M244.449 251.84V13.281" fill="none" stroke="#fff" stroke-width="4" stroke-miterlimit="1"/><path d="M39.059 405.199L4.839 371.09V251.84h239.61l34.223 34.058v119.301H39.059" fill="#231f20"/><path d="M39.059 405.199L4.839 371.09V251.84h239.61l34.223 34.058v119.301H39.059z" fill="none" stroke="#fff" stroke-width="4"/><path d="M4.84 371.09h239.609l34.223 34.109H39.059L4.839 371.09" fill="#231f20"/><path d="M4.84 371.09h239.609l34.223 34.109H39.059L4.839 371.09z" fill="none" stroke="#fff" stroke-width="4"/><path d="M244.449 371.09l34.223 34.109V285.898l-34.223-34.058v119.25" fill="#231f20"/><path d="M244.449 371.09l34.223 34.109V285.898l-34.223-34.058v119.25z" fill="none" stroke="#fff" stroke-width="4"/><path d="M39.059 405.199L4.839 371.09V251.84h239.61l34.223 34.058v119.301H39.059" fill="#087bbb"/><path d="M39.059 405.199L4.839 371.09V251.84h239.61l34.223 34.058v119.301H39.059z" fill="none" stroke="#fff" stroke-width="4"/><path d="M4.84 371.09h239.609l34.223 34.109M244.449 371.09V251.84" fill="none" stroke="#fff" stroke-width="4" stroke-miterlimit="1"/><path d="M21.95 320h68.44v34.059H21.95V320z" fill="#fff"/><path d="M39.059 47.34H210.23v170.39H39.059V47.34z" fill="#231f20"/><path d="M39.059 47.34H210.23v170.39H39.059V47.34z" fill="none" stroke="#fff" stroke-width="4" stroke-miterlimit="1"/><path d="M73.281 81.441h102.7v102.227H73.28V81.441zM158.871 320h68.48v34.059h-68.48V320zM21.95 268.871h68.44v34.059H21.95V268.87zM158.871 268.871h68.48v34.059h-68.48V268.87z" fill="#fff"/><path d="M90.39 337.031h68.481M90.39 285.898h68.481" fill="none" stroke="#fff" stroke-width="4" stroke-miterlimit="1"/><path d="M90.39 302.93L158.872 320" fill="#231f20"/><path d="M90.39 302.93L158.872 320" fill="none" stroke="#fff" stroke-width="4" stroke-miterlimit="1"/><path d="M90.39 320l68.481-17.07" fill="#231f20"/><path d="M90.39 320l68.481-17.07" fill="none" stroke="#fff" stroke-width="4" stroke-miterlimit="1"/></g></svg>
